SVG_Azure_All/Application Registration.svg

<?xml version="1.0" encoding="UTF-8" standalone="no"?>
<!-- Generated by Microsoft Visio, SVG Export Application Registration.svg Page-1 -->

<svg
   xmlns:dc="http://purl.org/dc/elements/1.1/"
   xmlns:cc="http://creativecommons.org/ns#"
   xmlns:rdf="http://www.w3.org/1999/02/22-rdf-syntax-ns#"
   xmlns:svg="http://www.w3.org/2000/svg"
   xmlns="http://www.w3.org/2000/svg"
   xmlns:sodipodi="http://sodipodi.sourceforge.net/DTD/sodipodi-0.dtd"
   xmlns:inkscape="http://www.inkscape.org/namespaces/inkscape"
   width="0.78744709in"
   height="0.7873652in"
   viewBox="0 0 56.696099 56.690605"
   xml:space="preserve"
   class="st5"
   version="1.1"
   id="svg58"
   sodipodi:docname="Application Registration.svg"
   style="font-size:12px;overflow:visible;color-interpolation-filters:sRGB;fill:none;fill-rule:evenodd;stroke-linecap:square;stroke-miterlimit:3"
   inkscape:version="0.92.5 (2060ec1f9f, 2020-04-08)"><metadata
   id="metadata62"><rdf:RDF><cc:Work
       rdf:about=""><dc:format>image/svg+xml</dc:format><dc:type
         rdf:resource="http://purl.org/dc/dcmitype/StillImage" /></cc:Work></rdf:RDF></metadata><sodipodi:namedview
   pagecolor="#ffffff"
   bordercolor="#666666"
   borderopacity="1"
   objecttolerance="10"
   gridtolerance="10"
   guidetolerance="10"
   inkscape:pageopacity="0"
   inkscape:pageshadow="2"
   inkscape:window-width="640"
   inkscape:window-height="480"
   id="namedview60"
   showgrid="false"
   inkscape:zoom="1.4193119"
   inkscape:cx="37.79513"
   inkscape:cy="37.786193"
   inkscape:window-x="0"
   inkscape:window-y="0"
   inkscape:window-maximized="0"
   inkscape:current-layer="svg58" />
	<style
   type="text/css"
   id="style2">
	<![CDATA[
		.st1 {fill:url(#grad0-6);stroke:none;stroke-linecap:butt;stroke-width:34}
		.st2 {fill:#32bedd;stroke:none;stroke-linecap:butt;stroke-width:34}
		.st3 {fill:#9cebff;stroke:none;stroke-linecap:butt;stroke-width:34}
		.st4 {fill:#50e6ff;stroke:none;stroke-linecap:butt;stroke-width:34}
		.st5 {fill:none;fill-rule:evenodd;font-size:12px;overflow:visible;stroke-linecap:square;stroke-miterlimit:3}
	]]>
	</style>

	<defs
   id="Patterns_And_Gradients">
		<linearGradient
   id="grad0-6"
   x1="-9.9155389e-07"
   y1="77.08161"
   x2="48.54371"
   y2="77.08161"
   gradientTransform="scale(1.0073396,0.99271388)"
   gradientUnits="userSpaceOnUse">
			<stop
   offset="0"
   stop-color="#5ea0ef"
   stop-opacity="1"
   id="stop4" />
			<stop
   offset="0.18"
   stop-color="#589eed"
   stop-opacity="1"
   id="stop6" />
			<stop
   offset="0.41"
   stop-color="#4897e9"
   stop-opacity="1"
   id="stop8" />
			<stop
   offset="0.66"
   stop-color="#2e8ce1"
   stop-opacity="1"
   id="stop10" />
			<stop
   offset="0.94"
   stop-color="#0a7cd7"
   stop-opacity="1"
   id="stop12" />
			<stop
   offset="1"
   stop-color="#0078d4"
   stop-opacity="1"
   id="stop14" />
		</linearGradient>
	</defs>
	<g
   id="g56"
   transform="translate(-34.00044,-34.003694)">
		<title
   id="title18">Page-1</title>
		<g
   id="group9426-1"
   transform="translate(34,-34.0157)">
			<title
   id="title20">Application Registration</title>
			<g
   id="group9427-2">
				<title
   id="title22">Icon-identity-232</title>
				<g
   id="shape9428-3"
   transform="translate(0,-8.50059)">
					<title
   id="title24">Sheet.9428</title>
					<path
   d="m 17.07,110.25 h 14.66 v 14.46 H 17.07 Z M 0.14,90.97 H 14.8 V 76.52 H 2.03 a 2.032,2.00801 -180 0 0 -2.03,2 z m 2.03,33.74 H 14.8 V 110.25 H 0 v 12.45 a 2.032,2.00801 -180 0 0 2.03,2.01 z M 0.14,107.98 H 14.8 V 93.38 H 0 Z m 34.13,16.73 h 12.6 A 2.032,2.00801 -180 0 0 48.9,122.7 V 110.25 H 34.14 Z M 17.34,107.98 H 31.73 V 93.38 H 17.07 Z m 16.93,0 h 14.4 V 93.38 H 34.14 Z m 0,-31.33 v 14.32 h 14.4 V 78.52 a 2.032,2.00801 -180 0 0 -2.04,-2 z M 17.34,91.11 H 31.73 V 76.52 H 17.07 Z"
   class="st1"
   id="path26"
   inkscape:connector-curvature="0"
   style="fill:url(#grad0-6);stroke:none;stroke-width:34;stroke-linecap:butt" />
				</g>
				<g
   id="shape9429-7"
   transform="translate(43.5865)">
					<title
   id="title29">Sheet.9429</title>
					<path
   d="m 13.11,102.05 v 15.1 L 0,124.71 v -15.09 z"
   class="st2"
   id="path31"
   inkscape:connector-curvature="0"
   style="fill:#32bedd;stroke:none;stroke-width:34;stroke-linecap:butt" />
				</g>
				<g
   id="shape9430-9"
   transform="translate(30.4801,-15.0601)">
					<title
   id="title34">Sheet.9430</title>
					<path
   d="m 26.21,117.11 -13.1,7.6 -13.11,-7.6 13.11,-7.56 z"
   class="st3"
   id="path36"
   inkscape:connector-curvature="0"
   style="fill:#9cebff;stroke:none;stroke-width:34;stroke-linecap:butt" />
				</g>
				<g
   id="shape9431-11"
   transform="translate(30.4801)">
					<title
   id="title39">Sheet.9431</title>
					<path
   d="m 13.11,109.65 v 15.06 L 0,117.15 v -15.1 z"
   class="st4"
   id="path41"
   inkscape:connector-curvature="0"
   style="fill:#50e6ff;stroke:none;stroke-width:34;stroke-linecap:butt" />
				</g>
				<g
   id="shape9432-13"
   transform="translate(30.4801)">
					<title
   id="title44">Sheet.9432</title>
					<path
   d="m 0,117.15 13.11,-7.53 v 15.09 z"
   class="st3"
   id="path46"
   inkscape:connector-curvature="0"
   style="fill:#9cebff;stroke:none;stroke-width:34;stroke-linecap:butt" />
				</g>
				<g
   id="shape9433-15"
   transform="translate(43.5865)">
					<title
   id="title49">Sheet.9433</title>
					<path
   d="M 13.11,117.15 0,109.62 v 15.09 z"
   class="st4"
   id="path51"
   inkscape:connector-curvature="0"
   style="fill:#50e6ff;stroke:none;stroke-width:34;stroke-linecap:butt" />
				</g>
			</g>
		</g>
	</g>
</svg>

<?xml version="1.0" encoding="UTF-8" standalone="no"?>
<!DOCTYPE svg PUBLIC "-//W3C//DTD SVG 1.1//EN" "http://www.w3.org/Graphics/SVG/1.1/DTD/svg11.dtd">
<!-- Generated by Microsoft Visio, SVG Export Application Registration.svg Page-1 -->
<svg xmlns="http://www.w3.org/2000/svg" xmlns:xlink="http://www.w3.org/1999/xlink" xmlns:ev="http://www.w3.org/2001/xml-events"
		width="1.73185in" height="1.73206in" viewBox="0 0 124.693 124.709" xml:space="preserve" color-interpolation-filters="sRGB"
		class="st5">
	<style type="text/css">
	<![CDATA[
		.st1 {fill:url(#grad0-6);stroke:none;stroke-linecap:butt;stroke-width:34}
		.st2 {fill:#32bedd;stroke:none;stroke-linecap:butt;stroke-width:34}
		.st3 {fill:#9cebff;stroke:none;stroke-linecap:butt;stroke-width:34}
		.st4 {fill:#50e6ff;stroke:none;stroke-linecap:butt;stroke-width:34}
		.st5 {fill:none;fill-rule:evenodd;font-size:12px;overflow:visible;stroke-linecap:square;stroke-miterlimit:3}
	]]>
	</style>

	<defs id="Patterns_And_Gradients">
		<linearGradient id="grad0-6" x1="0" y1="0" x2="1" y2="0" gradientTransform="rotate(90 0.5 0.5)">
			<stop offset="0" stop-color="#5ea0ef" stop-opacity="1"/>
			<stop offset="0.18" stop-color="#589eed" stop-opacity="1"/>
			<stop offset="0.41" stop-color="#4897e9" stop-opacity="1"/>
			<stop offset="0.66" stop-color="#2e8ce1" stop-opacity="1"/>
			<stop offset="0.94" stop-color="#0a7cd7" stop-opacity="1"/>
			<stop offset="1" stop-color="#0078d4" stop-opacity="1"/>
		</linearGradient>
	</defs>
	<g>
		<title>Page-1</title>
		<g id="group9221-1" transform="translate(34,-34.0157)">
			<title>Application Registration</title>
			<g id="group9222-2">
				<title>Icon-identity-232</title>
				<g id="shape9223-3" transform="translate(2.8777E-13,-8.50059)">
					<title>Sheet.9223</title>
					<path d="M17.07 110.25 L31.73 110.25 L31.73 124.71 L17.07 124.71 L17.07 110.25 ZM0.14 90.97 L14.8 90.97 L14.8
								 76.52 L2.03 76.52 A2.032 2.00801 -180 0 0 -0 78.52 L0.14 90.97 ZM2.17 124.71 L14.8 124.71 L14.8
								 110.25 L0 110.25 L0 122.7 A2.032 2.00801 -180 0 0 2.03 124.71 L2.17 124.71 ZM0.14 107.98 L14.8 107.98
								 L14.8 93.38 L0 93.38 L0.14 107.98 ZM34.27 124.71 L46.87 124.71 A2.032 2.00801 -180 0 0 48.9 122.7
								 L48.9 110.25 L34.14 110.25 L34.27 124.71 ZM17.34 107.98 L31.73 107.98 L31.73 93.38 L17.07 93.38
								 L17.34 107.98 ZM34.27 107.98 L48.67 107.98 L48.67 93.38 L34.14 93.38 L34.27 107.98 ZM34.27 76.65
								 L34.27 90.97 L48.67 90.97 L48.67 78.52 A2.032 2.00801 -180 0 0 46.63 76.52 L34.27 76.65 ZM17.34
								 91.11 L31.73 91.11 L31.73 76.52 L17.07 76.52 L17.34 91.11 Z" class="st1"/>
				</g>
				<g id="shape9224-7" transform="translate(43.5865,1.42109E-14)">
					<title>Sheet.9224</title>
					<path d="M13.11 102.05 L13.11 117.15 L0 124.71 L0 109.62 L13.11 102.05 Z" class="st2"/>
				</g>
				<g id="shape9225-9" transform="translate(30.4801,-15.0601)">
					<title>Sheet.9225</title>
					<path d="M26.21 117.11 L13.11 124.71 L0 117.11 L13.11 109.55 L26.21 117.11 Z" class="st3"/>
				</g>
				<g id="shape9226-11" transform="translate(30.4801,1.42109E-14)">
					<title>Sheet.9226</title>
					<path d="M13.11 109.65 L13.11 124.71 L0 117.15 L0 102.05 L13.11 109.65 Z" class="st4"/>
				</g>
				<g id="shape9227-13" transform="translate(30.4801,2.98428E-13)">
					<title>Sheet.9227</title>
					<path d="M0 117.15 L13.11 109.62 L13.11 124.71 L0 117.15 Z" class="st3"/>
				</g>
				<g id="shape9228-15" transform="translate(43.5865,2.98428E-13)">
					<title>Sheet.9228</title>
					<path d="M13.11 117.15 L0 109.62 L0 124.71 L13.11 117.15 Z" class="st4"/>
				</g>
			</g>
		</g>
	</g>
</svg>
